X: 117
T: No_44_Song_of_the_Peace_Pact.krn
%%abc-version 2.0
%%abcx-abcm2ps-target-version 5.9.1 (29 Sep 2008)
%%abc-creator hum2abc beta
%%abcx-conversion-date 2020/08/10 18:54:57
%%gracespace 0 6 6
%%humdrum-veritas 243820523
%%humdrum-veritas-data 4168308945
%%linebreak <none>
%%barnumbers 0
L: 1/4
M: 3/4
%%staves {1 2}
V: 1 clef=treble
V: 2 clef=bass
K: Bb
[V:1] [K:clef=treble][M:3/4]G2B | 
[V:2] [K:clef=bass][M:3/4]G,,/G,,/ G,,/G,,/ G,,/G,,/ | 
[V:1] G2D | 
[V:2] z3 | 
[V:1] G2F | 
[V:2] z3 | 
[V:1] D3 | 
[V:2] z3 | 
[V:1] DDD[K:clef=bass] | 
[V:2] z3 | 
[V:1] DDC/B,/ | 
[V:2] z3 | 
[V:1] C2B, | 
[V:2] z3 | 
[V:1] G,3 | 
[V:2] z3 | 
[V:1] G,2G, | 
[V:2] z3 | 
[V:1] G,2D, | 
[V:2] z3 | 
[V:1] G,2F, | 
[V:2] z3 | 
[V:1] D,3 |]  
[V:2] z3 |]  


